src/images/projects/quote.svg

<svg width="66" height="44" viewBox="0 0 66 44" fill="none" xmlns="http://www.w3.org/2000/svg">
<path opacity="0.1" d="M65.0942 31.8629C65.0942 35.1209 63.8561 37.9227 61.3801 40.2685C59.0343 42.4839 56.1022 43.5916 52.5836 43.5916C47.7618 43.5916 43.7219 41.8974 40.4639 38.5092C37.3363 35.1209 35.7725 30.7552 35.7725 25.4121C35.7725 15.6382 39.5517 8.66619 47.1102 4.49599C52.5836 1.49866 57.0144 0 60.4027 0C61.8362 0 62.553 0.521273 62.553 1.56382C62.553 2.47605 61.771 3.12765 60.2072 3.51861C49.3908 6.38562 43.9825 11.7938 43.9825 19.7433C43.9825 23.2619 44.8948 26.2592 46.7192 28.7353C46.9799 24.3044 49.7817 22.089 55.1248 22.089C57.9918 22.089 60.3375 23.0664 62.162 25.0212C64.1168 26.8456 65.0942 29.1262 65.0942 31.8629ZM29.1262 31.8629C29.1262 35.1209 27.8882 37.9227 25.4121 40.2685C23.0664 42.4839 20.1994 43.5916 16.8111 43.5916C11.859 43.5916 7.81912 41.8974 4.69147 38.5092C1.56382 34.9906 0 30.5597 0 25.2167C0 15.5731 3.77924 8.66619 11.3377 4.49599C16.8111 1.49866 21.1768 0 24.4347 0C25.8682 0 26.585 0.521273 26.585 1.56382C26.585 2.47605 25.8031 3.12765 24.2393 3.51861C13.5531 6.38562 8.21008 11.859 8.21008 19.9387C8.21008 23.327 9.1223 26.2592 10.9468 28.7353C11.2074 24.3044 13.9441 22.089 19.1568 22.089C22.0239 22.089 24.3696 23.0664 26.194 25.0212C28.1488 26.8456 29.1262 29.1262 29.1262 31.8629Z" fill="white"/>
</svg>

<svg width="66" height="44" fill="none" xmlns="http://www.w3.org/2000/svg"><path opacity=".1" d="M65.094 31.863c0 3.258-1.238 6.06-3.714 8.406-2.346 2.215-5.278 3.323-8.796 3.323-4.822 0-8.862-1.695-12.12-5.083-3.128-3.388-4.691-7.754-4.691-13.097 0-9.774 3.779-16.746 11.337-20.916C52.584 1.499 57.014 0 60.403 0c1.433 0 2.15.521 2.15 1.564 0 .912-.782 1.564-2.346 1.955-10.816 2.867-16.224 8.275-16.224 16.224 0 3.519.912 6.516 2.736 8.992.26-4.43 3.063-6.646 8.406-6.646 2.867 0 5.212.977 7.037 2.932 1.955 1.825 2.932 4.105 2.932 6.842zm-35.968 0c0 3.258-1.238 6.06-3.714 8.406-2.346 2.215-5.213 3.323-8.6 3.323-4.953 0-8.993-1.695-12.12-5.083C1.563 34.991 0 30.56 0 25.217c0-9.644 3.78-16.55 11.338-20.721C16.81 1.499 21.177 0 24.435 0c1.433 0 2.15.521 2.15 1.564 0 .912-.782 1.564-2.346 1.955C13.553 6.386 8.21 11.859 8.21 19.939c0 3.388.912 6.32 2.737 8.796.26-4.43 2.997-6.646 8.21-6.646 2.867 0 5.213.977 7.037 2.932 1.955 1.825 2.932 4.105 2.932 6.842z" fill="#fff"/></svg>
